img/svg/16/net/kylo.svg

<svg xmlns="http://www.w3.org/2000/svg" viewBox="0 0 16 16" enable-background="new 0 0 16 16"><path d="M7 13.91v1.01c-3.064-.439-5.482-2.858-5.922-5.92h1.012c.423 2.509 2.399 4.488 4.91 4.91zm6.909-6.91h1.012c-.439-3.062-2.857-5.481-5.921-5.92v1.01c2.511.422 4.487 2.401 4.909 4.91zm-4.909 6.91v1.01c3.064-.439 5.482-2.858 5.922-5.92h-1.012c-.423 2.509-2.399 4.488-4.91 4.91zm-7-11.91h5v-1h-6v6h1v-5zm11 6c0-2.761-2.239-5-5-5h-5v5c0 2.761 2.239 5 5 5s5-2.239 5-5z" fill="#ccc"/></svg>

<svg xmlns="http://www.w3.org/2000/svg" viewBox="0 0 16 16"><path fill="#ccc" d="M7 13.91v1.01A6.995 6.995 0 0 1 1.078 9H2.09A5.998 5.998 0 0 0 7 13.91zM13.909 7h1.012A6.993 6.993 0 0 0 9 1.08v1.01A5.995 5.995 0 0 1 13.909 7zM9 13.91v1.01A6.995 6.995 0 0 0 14.922 9H13.91A5.998 5.998 0 0 1 9 13.91zM2 2h5V1H1v6h1V2zm11 6a5 5 0 0 0-5-5H3v5a5 5 0 0 0 10 0z"/></svg>
